packages/icons/general/ResultNo.svg

<svg xmlns="http://www.w3.org/2000/svg" fill="none" viewBox="0 0 18 18">
    <path fill="#FF3545" d="M9 1C4.592 1 1 4.592 1 9c0 4.408 3.592 8 8 8 4.408 0 8-3.592 8-8 0-4.408-3.592-8-8-8Zm2.688 9.84a.604.604 0 0 1 0 .848.593.593 0 0 1-.424.176.593.593 0 0 1-.424-.176L9 9.848l-1.84 1.84a.593.593 0 0 1-.424.176.593.593 0 0 1-.424-.176.604.604 0 0 1 0-.848L8.152 9l-1.84-1.84a.604.604 0 0 1 0-.848.604.604 0 0 1 .848 0L9 8.152l1.84-1.84a.604.604 0 0 1 .848 0 .604.604 0 0 1 0 .848L9.848 9l1.84 1.84Z"/>
</svg>

<svg xmlns="http://www.w3.org/2000/svg" fill="none" viewBox="0 0 18 18">
    <path fill="#FF3545" d="M9 1C4.592 1 1 4.592 1 9C1 13.408 4.592 17 9 17C13.408 17 17 13.408 17 9C17 4.592 13.408 1 9 1ZM11.688 10.84C11.92 11.072 11.92 11.456 11.688 11.688C11.568 11.808 11.416 11.864 11.264 11.864C11.112 11.864 10.96 11.808 10.84 11.688L9 9.848L7.16 11.688C7.04 11.808 6.888 11.864 6.736 11.864C6.584 11.864 6.432 11.808 6.312 11.688C6.08 11.456 6.08 11.072 6.312 10.84L8.152 9L6.312 7.16C6.08 6.928 6.08 6.544 6.312 6.312C6.544 6.08 6.928 6.08 7.16 6.312L9 8.152L10.84 6.312C11.072 6.08 11.456 6.08 11.688 6.312C11.92 6.544 11.92 6.928 11.688 7.16L9.848 9L11.688 10.84Z"/>
</svg>
